icons/file-binary-16.svg

<svg width="16" height="16" viewBox="0 0 16 16" xmlns="http://www.w3.org/2000/svg">
  <path fill-rule="evenodd" clip-rule="evenodd" d="M4 1.75C4 0.783502 4.7835 0 5.75 0H11.3358C11.7999 0 12.245 0.184374 12.5732 0.512563L15.4874 3.42678C15.8156 3.75497 16 4.20008 16 4.66421V13.25C16 14.2165 15.2165 15 14.25 15H5.25C4.83579 15 4.5 14.6642 4.5 14.25C4.5 13.8358 4.83579 13.5 5.25 13.5H14.25C14.3881 13.5 14.5 13.3881 14.5 13.25V6H11.75C10.7835 6 10 5.2165 10 4.25V1.5H5.75C5.61193 1.5 5.5 1.61193 5.5 1.75V3.75C5.5 4.16421 5.16421 4.5 4.75 4.5C4.33579 4.5 4 4.16421 4 3.75V1.75ZM11.5 1.5615V4.25C11.5 4.38807 11.6119 4.5 11.75 4.5H14.4385C14.4348 4.49569 14.4308 4.4915 14.4268 4.48744L11.5126 1.57322C11.5085 1.56916 11.5043 1.56525 11.5 1.5615ZM0 7.75C0 6.7835 0.783502 6 1.75 6H3.25C4.2165 6 5 6.7835 5 7.75V10.25C5 11.2165 4.2165 12 3.25 12H1.75C0.783502 12 0 11.2165 0 10.25V7.75ZM1.75 7.5C1.61193 7.5 1.5 7.61193 1.5 7.75V10.25C1.5 10.3881 1.61193 10.5 1.75 10.5H3.25C3.38807 10.5 3.5 10.3881 3.5 10.25V7.75C3.5 7.61193 3.38807 7.5 3.25 7.5H1.75ZM6.75 6C6.33579 6 6 6.33579 6 6.75C6 7.16421 6.33579 7.5 6.75 7.5H7.5V10.5H6.75C6.33579 10.5 6 10.8358 6 11.25C6 11.6642 6.33579 12 6.75 12H9.75C10.1642 12 10.5 11.6642 10.5 11.25C10.5 10.8358 10.1642 10.5 9.75 10.5H9V6.75C9 6.33579 8.66421 6 8.25 6H6.75Z"/>
</svg>

<svg xmlns="http://www.w3.org/2000/svg" width="16" height="16" viewBox="0 0 16 16"><path fill-rule="evenodd" d="M4 1.75C4 .784 4.784 0 5.75 0h5.586c.464 0 .909.184 1.237.513l2.914 2.914c.329.328.513.773.513 1.237v8.586A1.75 1.75 0 0114.25 15h-9a.75.75 0 010-1.5h9a.25.25 0 00.25-.25V6h-2.75A1.75 1.75 0 0110 4.25V1.5H5.75a.25.25 0 00-.25.25v2a.75.75 0 01-1.5 0v-2zm7.5-.188V4.25c0 .138.112.25.25.25h2.688a.252.252 0 00-.011-.013l-2.914-2.914a.272.272 0 00-.013-.011zM0 7.75C0 6.784.784 6 1.75 6h1.5C4.216 6 5 6.784 5 7.75v2.5A1.75 1.75 0 013.25 12h-1.5A1.75 1.75 0 010 10.25v-2.5zm1.75-.25a.25.25 0 00-.25.25v2.5c0 .138.112.25.25.25h1.5a.25.25 0 00.25-.25v-2.5a.25.25 0 00-.25-.25h-1.5zm5-1.5a.75.75 0 000 1.5h.75v3h-.75a.75.75 0 000 1.5h3a.75.75 0 000-1.5H9V6.75A.75.75 0 008.25 6h-1.5z"/></svg>
